projects/project-imgs/untitled-adventure.svg

<svg xmlns="http://www.w3.org/2000/svg" width="2000" height="2000" fill="none"><path fill="#81B5A4" d="M0 0h2000v2000H0z"/><circle cx="1000" cy="1000" r="910" fill="#1E5944"/><path fill="#000" stroke="#060606" stroke-width="60" d="M1206.05 732.763c-173.13-73.582-342.235-30.659-405.146 0C700.246 466.512 647.401 406 607.138 406S302.648 771.491 280 1132.14c17.615 375.17 261.476 462.31 747.38 462.31 445.42 0 694.54-169.43 692.03-462.31C1716.89 839.264 1442.6 406 1384.72 406s-128.34 186.376-178.67 326.763Z"/><circle cx="692.144" cy="1096.19" r="232.128" fill="#000" stroke="#fff" stroke-width="50"/><circle cx="1307.28" cy="1096.19" r="232.128" fill="#000" stroke="#fff" stroke-width="50"/><path fill="#fff" d="M908.673 1378.54c0 16.64-13.495 30.14-30.142 30.14s-30.142-13.5-30.142-30.14c0-16.65 13.495-30.15 30.142-30.15s30.142 13.5 30.142 30.15M1029.24 1378.54c0 16.64-13.49 30.14-30.142 30.14-16.647 0-30.142-13.5-30.142-30.14 0-16.65 13.495-30.15 30.142-30.15 16.652 0 30.142 13.5 30.142 30.15"/><path fill="#fff" d="M999.098 1438.82c-73.816 71.36-139.021-12.92-148.248-49.83 18.393-7.17 54.602-22.63 52.287-27.06 29.259 55.97 46.75 53.51 68.895 9.22l27.066 17.84zM1090.14 1378.54c0 16.64 13.49 30.14 30.14 30.14s30.14-13.5 30.14-30.14c0-16.65-13.49-30.15-30.14-30.15s-30.14 13.5-30.14 30.15"/><path fill="#fff" d="M999.713 1438.82c73.817 71.36 139.017-12.92 148.247-49.83-18.39-7.17-54.6-22.63-52.28-27.06-29.26 55.97-46.76 53.51-68.9 9.22l-27.067 17.84-27.681 38.76z"/></svg>

<svg width="2000" height="2000" viewBox="0 0 2000 2000" fill="none" xmlns="http://www.w3.org/2000/svg">
<rect width="2000" height="2000" fill="#81B5A4"/>
<circle cx="1000" cy="1000" r="910" fill="#1E5944"/>
<path d="M1206.05 732.763C1032.92 659.181 863.815 702.104 800.904 732.763C700.246 466.512 647.401 406 607.138 406C566.875 406 302.648 771.491 280 1132.14C297.615 1507.31 541.476 1594.45 1027.38 1594.45C1472.8 1594.45 1721.92 1425.02 1719.41 1132.14C1716.89 839.264 1442.6 406 1384.72 406C1326.84 406 1256.38 592.376 1206.05 732.763Z" fill="black" stroke="#060606" stroke-width="60"/>
<circle cx="692.144" cy="1096.19" r="232.128" fill="black" stroke="white" stroke-width="50"/>
<circle cx="1307.28" cy="1096.19" r="232.128" fill="black" stroke="white" stroke-width="50"/>
<path d="M908.673 1378.54C908.673 1395.18 895.178 1408.68 878.531 1408.68C861.884 1408.68 848.389 1395.18 848.389 1378.54C848.389 1361.89 861.884 1348.39 878.531 1348.39C895.178 1348.39 908.673 1361.89 908.673 1378.54Z" fill="white"/>
<path d="M1029.24 1378.54C1029.24 1395.18 1015.75 1408.68 999.098 1408.68C982.451 1408.68 968.956 1395.18 968.956 1378.54C968.956 1361.89 982.451 1348.39 999.098 1348.39C1015.75 1348.39 1029.24 1361.89 1029.24 1378.54Z" fill="white"/>
<path d="M999.098 1438.82C925.282 1510.18 860.077 1425.9 850.85 1388.99C869.243 1381.82 905.452 1366.36 903.137 1361.93C932.396 1417.9 949.887 1415.44 972.032 1371.15L999.098 1388.99V1438.82Z" fill="white"/>
<path d="M1090.14 1378.54C1090.14 1395.18 1103.63 1408.68 1120.28 1408.68C1136.93 1408.68 1150.42 1395.18 1150.42 1378.54C1150.42 1361.89 1136.93 1348.39 1120.28 1348.39C1103.63 1348.39 1090.14 1361.89 1090.14 1378.54Z" fill="white"/>
<path d="M999.713 1438.82C1073.53 1510.18 1138.73 1425.9 1147.96 1388.99C1129.57 1381.82 1093.36 1366.36 1095.68 1361.93C1066.42 1417.9 1048.92 1415.44 1026.78 1371.15L999.713 1388.99L972.032 1427.75L999.713 1438.82Z" fill="white"/>
</svg>
